X: 24
T:Opera Hat,The. ST.24
M:6/8
L:1/8
Q:120
S:Annonymous Staffordshire MS, Early 19thC.
R:Jig
O:England
A:Staffordshire
Z:vmp.Tim Willets
K:D
A2|d2d def|A2AA2A|B2dc2e|d2f ecA|!
d2d def|A2AA2A|B2dc2e|(d3d2)||!
f|e2e efg|f2ed2f|e2e efg|(f3d2)f|!
e2e efg|f2ed2f|{f}e2d {d}c2B|A2GF2E|!
F3 GFG|A2A A2A|B2dc2e|d2f ecA|!
F3GFG|A2AA2A|B2dc2e|(d3d2)|]
